svgs/sharp-regular/tablet-screen-button.svg

<svg xmlns="http://www.w3.org/2000/svg" viewBox="0 0 448 512"><!--! Font Awesome Pro 6.6.0 by @fontawesome - https://fontawesome.com License - https://fontawesome.com/license (Commercial License) Copyright 2024 Fonticons, Inc. --><path d="M48 464l352 0 0-96L48 368l0 96zm0-144l352 0 0-272L48 48l0 272zM0 0L48 0 400 0l48 0 0 48 0 416 0 48-48 0L48 512 0 512l0-48L0 48 0 0zM224 392a24 24 0 1 1 0 48 24 24 0 1 1 0-48z"/></svg>

<svg xmlns="http://www.w3.org/2000/svg" viewBox="0 0 448 512"><!--! Font Awesome Pro 6.5.2 by @fontawesome - https://fontawesome.com License - https://fontawesome.com/license (Commercial License) Copyright 2024 Fonticons, Inc. --><path d="M48 464H400V368H48v96zm0-144H400V48H48V320zM0 0H48 400h48V48 464v48H400 48 0V464 48 0zM224 392a24 24 0 1 1 0 48 24 24 0 1 1 0-48z"/></svg>
